X: 3
T: The Steampacket
R: reel
M: 4/4
L: 1/8
K: Gmaj
| B~G3 AGFA | D~G3 A2dc | A~G3 AGFG | =F3G ABcA |BGGB AGFA | D~G3 A2dc | A~G3 AGFG | =F3G ABcA |d~g3 aggf | dgge fdcA | d~g3 agfg | dcde fdcA |d~g3 agfg | a2ag ~f3g | a2(3gfe fdec | d2eg fdcA |


Tune 690	Setting 25479

